places/scalable/folder_color_magenta.svg

<?xml version="1.0" encoding="UTF-8" standalone="no"?>
<svg
   xmlns:dc="http://purl.org/dc/elements/1.1/"
   xmlns:cc="http://creativecommons.org/ns#"
   xmlns:rdf="http://www.w3.org/1999/02/22-rdf-syntax-ns#"
   xmlns:svg="http://www.w3.org/2000/svg"
   xmlns="http://www.w3.org/2000/svg"
   xmlns:xlink="http://www.w3.org/1999/xlink"
   xmlns:sodipodi="http://sodipodi.sourceforge.net/DTD/sodipodi-0.dtd"
   xmlns:inkscape="http://www.inkscape.org/namespaces/inkscape"
   height="48"
   viewBox="0 0 48 48"
   width="48"
   version="1.1"
   id="svg1300"
   sodipodi:docname="folder_color_pink.svg"
   inkscape:version="0.92.3 (2405546, 2018-03-11)">
  <metadata
     id="metadata1306">
    <rdf:RDF>
      <cc:Work
         rdf:about="">
        <dc:format>image/svg+xml</dc:format>
        <dc:type
           rdf:resource="http://purl.org/dc/dcmitype/StillImage" />
      </cc:Work>
    </rdf:RDF>
  </metadata>
  <defs
     id="defs1304" />
  <sodipodi:namedview
     pagecolor="#ffffff"
     bordercolor="#666666"
     borderopacity="1"
     objecttolerance="10"
     gridtolerance="10"
     guidetolerance="10"
     inkscape:pageopacity="0"
     inkscape:pageshadow="2"
     inkscape:window-width="1366"
     inkscape:window-height="713"
     id="namedview1302"
     showgrid="false"
     inkscape:zoom="4.9166667"
     inkscape:cx="2.6440678"
     inkscape:cy="24"
     inkscape:window-x="0"
     inkscape:window-y="0"
     inkscape:window-maximized="1"
     inkscape:current-layer="svg1300" />
  <linearGradient
     id="a">
    <stop
       offset="0"
       stop-color="#e91e63"
       id="stop2" />
    <stop
       offset="1"
       stop-color="#f0588b"
       id="stop4" />
  </linearGradient>
  <filter
     id="b"
     color-interpolation-filters="sRGB"
     height="1.099489"
     width="1.056413"
     x="-.028207"
     y="-.049744">
    <feGaussianBlur
       stdDeviation="5.8998423"
       id="feGaussianBlur7" />
  </filter>
  <linearGradient
     id="c"
     gradientUnits="userSpaceOnUse"
     x1="13.921029831273"
     x2="13.524684385606"
     xlink:href="#a"
     y1="39.852323748937"
     y2="8.305117441259" />
  <linearGradient
     id="d">
    <stop
       offset="0"
       stop-color="#ccc"
       id="stop11" />
    <stop
       offset="1"
       stop-color="#e6e6e6"
       id="stop13" />
  </linearGradient>
  <linearGradient
     id="e"
     gradientUnits="userSpaceOnUse"
     x1="22.09865138425"
     x2="22.003916697133"
     xlink:href="#d"
     y1="39.567831542419"
     y2="11.944369840691" />
  <linearGradient
     id="f"
     gradientTransform="matrix(.82970355 0 0 .87402304 44.868948 7.045139)"
     gradientUnits="userSpaceOnUse"
     x1="-33.88871"
     x2="-34.502491"
     y1="37.608711"
     y2="2.822808">
    <stop
       offset="0"
       stop-color="#ccc"
       id="stop17" />
    <stop
       offset="1"
       stop-color="#f5f2f5"
       id="stop19" />
  </linearGradient>
  <linearGradient
     id="g"
     gradientTransform="matrix(.85071011 0 0 .87172595 45.339098 8.461861)"
     gradientUnits="userSpaceOnUse"
     x1="-28.57406"
     x2="-28.685703"
     xlink:href="#a"
     y1="36.068886"
     y2="3.671537" />
  <linearGradient
     id="h"
     gradientUnits="userSpaceOnUse"
     x1="18.02523"
     x2="17.593777"
     xlink:href="#d"
     y1="39.75425"
     y2="9.648277" />
  <linearGradient
     id="i">
    <stop
       offset="0"
       stop-color="#3889e9"
       id="stop24" />
    <stop
       offset="1"
       stop-color="#5ea5fb"
       id="stop26" />
  </linearGradient>
  <linearGradient
     id="j"
     gradientUnits="userSpaceOnUse"
     x1="-53.904202151312"
     x2="-53.904202151312"
     xlink:href="#i"
     y1="37.308015311794"
     y2="-3.131270288206" />
  <linearGradient
     id="k"
     gradientUnits="userSpaceOnUse"
     x1="-.264741399888"
     x2="-.264741399888"
     xlink:href="#i"
     y1="34.057533970106"
     y2="-7.802740429894" />
  <linearGradient
     id="l"
     gradientUnits="userSpaceOnUse"
     x1="-140.271003565256"
     x2="-140.271003565256"
     xlink:href="#i"
     y1="37.170842246097"
     y2="-10.199280553903" />
  <linearGradient
     id="m"
     gradientUnits="userSpaceOnUse"
     x1="42.606418600112"
     x2="42.606418600112"
     xlink:href="#i"
     y1="36.467973970106"
     y2="-5.392300429894" />
  <linearGradient
     id="n"
     gradientUnits="userSpaceOnUse"
     x1="-11.561331399888"
     x2="-11.561331399888"
     xlink:href="#i"
     y1="39.968683970106"
     y2="-1.891590429894" />
  <path
     d="m6.5439662 11.656278c-.7351528 0-1.3263212.592871-1.3263212 1.328021v25.543597c0 .735152.5911684 1.328023 1.3263212 1.328023h17.2064738 1.205593 17.206474c.735152 0 1.326322-.592871 1.326322-1.328023v-25.543597c0-.73515-.59117-1.328021-1.326322-1.328021h-17.206474-1.205593z"
     fill="url(#e)"
     id="path34" />
  <path
     d="m18.474468 8.0205511c-.102628-.00269-.226588.00157-.387735.00157h-12.1689132c-.3815126 0-.6891325.3097891-.6891325.6938416v4.2289813c-.0005648.016-.00471.03095-.00471.04709v25.576381c0 .736091.5935103 1.329602 1.3296009 1.329602h35.6983098c.736093 0 1.328033-.593511 1.328033-1.329602v-25.576378c0-.736092-.59194-1.329602-1.328033-1.329602h-21.316008c-.01268-.0169-.02114-.02595-.03454-.04395-.491861-.662668-1.234682-2.4492081-1.718902-3.0956048-.2915-.4244578-.400085-.4942592-.707971-.5023288z"
     fill="url(#c)"
     id="path36" />
  <path
     d="m7.499159 9.4566879h9.738435c.277 0 .5.223.5.5v1.1090001c0 .277-.223.5-.5.5h-9.738435c-.2770001 0-.5-.223-.5-.5v-1.1090001c0-.277.2229999-.5.5-.5z"
     fill="url(#h)"
     id="path38" />
  <path
     d="m5.5804566 12.850769c-.6383882 0-1.1951591.543892-1.1517441 1.21482l1.5120334 23.366264c.043421.670931.5133569 1.214822 1.1517441 1.214822h14.94167 4.377195 14.941671c.638388 0 1.108331-.543891 1.151746-1.214822l1.512033-23.366264c.0434-.670928-.513358-1.21482-1.151744-1.21482h-16.453706-4.377195z"
     fill="url(#f)"
     id="path40" />
  <path
     d="m28.241425 148.07206c-12.87594 0-23.24141 9.6069-23.24141 21.54052l16 244.76159v7.4003c0 6.06398 5.26673 10.94526 11.80953 10.94526h446.379045c6.54281 0 11.81139-4.88128 11.81139-10.94526l15.998-252.16189c0-11.93362-10.36547-21.54052-23.24141-21.54052h-455.515295z"
     fill-rule="evenodd"
     filter="url(#b)"
     opacity=".3"
     transform="matrix(.07561882 0 0 .07969348 4.839513 2.856494)"
     id="path42" />
  <path
     d="m5.1236901 14.591215c-.6545516 0-1.2143558.541818-1.1809047 1.211627l1.1469427 22.96587c.033451.669811.526354 1.211629 1.1809047 1.211629h15.6555402 4.488019l16.039057-.04794c.654549-.002 1.154618-.541498 1.180906-1.211629l.89902-22.917931c.02629-.670129-.526354-1.211627-1.180904-1.211627h-16.870282-4.488019z"
     fill="url(#g)"
     id="path44" />
</svg>

<?xml version="1.0" encoding="utf-8" standalone="no"?>
<!DOCTYPE svg PUBLIC "-//W3C//DTD SVG 1.1//EN"
"http://www.w3.org/Graphics/SVG/1.1/DTD/svg11.dtd">
<svg version="1.1" xmlns="http://www.w3.org/2000/svg" xmlns:xlink="http://www.w3.org/1999/xlink" preserveAspectRatio="xMidYMid meet" viewBox="0 0 48 48" width="48" height="48">
<defs>
<path d="M6.54 11.66C5.81 11.66 5.22 12.25 5.22 12.98C5.22 15.54 5.22 35.97 5.22 38.53C5.22 39.26 5.81 39.86 6.54 39.86C10.11 39.86 38.6 39.86 42.16 39.86C42.9 39.86 43.49 39.26 43.49 38.53C43.49 35.97 43.49 15.54 43.49 12.98C43.49 12.25 42.9 11.66 42.16 11.66C40.94 11.66 34.8 11.66 23.75 11.66C14.57 11.66 8.84 11.66 6.54 11.66Z" id="l3DP20v0zk"></path>
<linearGradient id="gradientb2NwmEU1ZP" gradientUnits="userSpaceOnUse" x1="22.1" y1="39.57" x2="22" y2="11.94">
<stop style="stop-color: #cccccc;stop-opacity: 1" offset="0%"></stop>
<stop style="stop-color: #e6e6e6;stop-opacity: 1" offset="100%"></stop>
</linearGradient>
<path d="M18.09 8.02C16.87 8.02 7.13 8.02 5.92 8.02C5.54 8.02 5.23 8.33 5.23 8.72C5.23 9.14 5.23 12.52 5.23 12.95C5.23 12.96 5.22 12.98 5.22 12.99C5.22 15.55 5.22 36.01 5.22 38.57C5.22 39.3 5.82 39.9 6.55 39.9C10.12 39.9 38.68 39.9 42.25 39.9C42.99 39.9 43.58 39.3 43.58 38.57C43.58 36.01 43.58 15.55 43.58 12.99C43.58 12.26 42.99 11.66 42.25 11.66C40.12 11.66 23.07 11.66 20.94 11.66C20.92 11.65 20.91 11.64 20.9 11.62C20.41 10.96 19.67 9.17 19.18 8.52C18.89 8.1 18.78 8.03 18.47 8.02C18.37 8.02 18.25 8.02 18.09 8.02Z" id="a2CSNeYR36"></path>
<linearGradient id="gradientaxiYAiE09" gradientUnits="userSpaceOnUse" x1="13.92" y1="39.85" x2="13.52" y2="8.31">
<stop style="stop-color: #e91e63;stop-opacity: 1" offset="0%"></stop>
<stop style="stop-color: #f0588b;stop-opacity: 1" offset="100%"></stop>
</linearGradient>
<path d="M17.24 9.46C17.51 9.46 17.74 9.68 17.74 9.96C17.74 10.07 17.74 10.95 17.74 11.07C17.74 11.34 17.51 11.57 17.24 11.57C16.26 11.57 8.47 11.57 7.5 11.57C7.22 11.57 7 11.34 7 11.07C7 10.95 7 10.07 7 9.96C7 9.68 7.22 9.46 7.5 9.46C9.45 9.46 16.26 9.46 17.24 9.46Z" id="cu8sTGAfZ"></path>
<linearGradient id="gradienta1O7vgDd0v" gradientUnits="userSpaceOnUse" x1="18.02" y1="39.75" x2="17.59" y2="9.65">
<stop style="stop-color: #cccccc;stop-opacity: 1" offset="0%"></stop>
<stop style="stop-color: #e6e6e6;stop-opacity: 1" offset="100%"></stop>
</linearGradient>
<path d="M5.58 12.85C4.94 12.85 4.39 13.39 4.43 14.07C4.58 16.4 5.79 35.1 5.94 37.43C5.98 38.1 6.45 38.65 7.09 38.65C10.52 38.65 37.93 38.65 41.35 38.65C41.99 38.65 42.46 38.1 42.51 37.43C42.66 35.1 43.87 16.4 44.02 14.07C44.06 13.39 43.5 12.85 42.87 12.85C41.48 12.85 34.53 12.85 22.03 12.85C13.26 12.85 7.77 12.85 5.58 12.85Z" id="agYvbFXy5"></path>
<linearGradient id="gradientcSc6af5lo" gradientUnits="userSpaceOnUse" x1="16.75" y1="39.92" x2="16.24" y2="9.51">
<stop style="stop-color: #cccccc;stop-opacity: 1" offset="0%"></stop>
<stop style="stop-color: #f5f2f5;stop-opacity: 1" offset="100%"></stop>
</linearGradient>
<path d="M5.11 14.47C4.45 14.47 3.89 15.01 3.93 15.68C4.04 17.98 4.96 36.35 5.07 38.64C5.11 39.31 5.6 39.86 6.26 39.86C7.6 39.86 14.31 39.86 26.4 39.86C36.02 39.83 41.37 39.81 42.44 39.81C43.09 39.81 43.59 39.27 43.62 38.6C43.71 36.3 44.43 17.97 44.52 15.68C44.54 15.01 43.99 14.47 43.34 14.47C41.91 14.47 34.79 14.47 21.98 14.47C12.98 14.47 7.36 14.47 5.11 14.47Z" id="b1h2n87tSZ"></path>
<linearGradient id="gradienth48YNUsmd" gradientUnits="userSpaceOnUse" x1="21.02" y1="39.78" x2="20.92" y2="11.54">
<stop style="stop-color: #e91e63;stop-opacity: 1" offset="0%"></stop>
<stop style="stop-color: #f0588b;stop-opacity: 1" offset="100%"></stop>
</linearGradient>
</defs>
<g>
<g>
<g>
<use xlink:href="#l3DP20v0zk" opacity="1" fill="url(#gradientb2NwmEU1ZP)"></use>
<g>
<use xlink:href="#l3DP20v0zk" opacity="1" fill-opacity="0" stroke="#000000" stroke-width="1" stroke-opacity="0"></use>
</g>
</g>
<g>
<use xlink:href="#a2CSNeYR36" opacity="1" fill="url(#gradientaxiYAiE09)"></use>
<g>
<use xlink:href="#a2CSNeYR36" opacity="1" fill-opacity="0" stroke="#000000" stroke-width="1" stroke-opacity="0"></use>
</g>
</g>
<g>
<use xlink:href="#cu8sTGAfZ" opacity="1" fill="url(#gradienta1O7vgDd0v)"></use>
<g>
<use xlink:href="#cu8sTGAfZ" opacity="1" fill-opacity="0" stroke="#000000" stroke-width="1" stroke-opacity="0"></use>
</g>
</g>
<g>
<use xlink:href="#agYvbFXy5" opacity="1" fill="url(#gradientcSc6af5lo)"></use>
<g>
<use xlink:href="#agYvbFXy5" opacity="1" fill-opacity="0" stroke="#000000" stroke-width="1" stroke-opacity="0"></use>
</g>
</g>
<g>
<use xlink:href="#b1h2n87tSZ" opacity="1" fill="url(#gradienth48YNUsmd)"></use>
<g>
<use xlink:href="#b1h2n87tSZ" opacity="1" fill-opacity="0" stroke="#000000" stroke-width="1" stroke-opacity="0"></use>
</g>
</g>
</g>
</g>
</svg>
